libs/icons/src/svg/form.svg

<svg width="16" height="16" viewBox="0 0 16 16" fill="none" xmlns="http://www.w3.org/2000/svg">
<g clip-path="url(#clip0_3_3733)">
<path fill-rule="evenodd" clip-rule="evenodd" d="M4.66669 0C4.2985 0 4.00002 0.298477 4.00002 0.666667V4.66667C4.00002 5.03486 4.2985 5.33333 4.66669 5.33333H6.66669C7.03488 5.33333 7.33335 5.03486 7.33335 4.66667C7.33335 4.29819 7.63154 4 8.00002 4C8.3685 4 8.66669 4.29819 8.66669 4.66667C8.66669 5.03486 8.96516 5.33333 9.33335 5.33333H11.3334C11.7015 5.33333 12 5.03486 12 4.66667V0.666667C12 0.298477 11.7015 0 11.3334 0H4.66669ZM6.11375 4H5.33335V1.33333H10.6667V4H9.88629C9.61183 3.22308 8.8711 2.66667 8.00002 2.66667C7.12894 2.66667 6.38821 3.22308 6.11375 4ZM0.666687 2C0.666687 1.63181 0.965164 1.33333 1.33335 1.33333H2.66669C3.03488 1.33333 3.33335 1.63181 3.33335 2C3.33335 2.36819 3.03488 2.66667 2.66669 2.66667H2.00002V14.6667H14V2.66667H13.3334C12.9652 2.66667 12.6667 2.36819 12.6667 2C12.6667 1.63181 12.9652 1.33333 13.3334 1.33333H14.6667C15.0349 1.33333 15.3334 1.63181 15.3334 2V15.3333C15.3334 15.7015 15.0349 16 14.6667 16H1.33335C0.965164 16 0.666687 15.7015 0.666687 15.3333V2ZM4.66669 7.33333C4.2985 7.33333 4.00002 7.63181 4.00002 8C4.00002 8.36819 4.2985 8.66667 4.66669 8.66667H11.3334C11.7015 8.66667 12 8.36819 12 8C12 7.63181 11.7015 7.33333 11.3334 7.33333H4.66669ZM4.66669 10.6667C4.2985 10.6667 4.00002 10.9651 4.00002 11.3333C4.00002 11.7015 4.2985 12 4.66669 12H11.3334C11.7015 12 12 11.7015 12 11.3333C12 10.9651 11.7015 10.6667 11.3334 10.6667H4.66669Z" fill="#202327"/>
</g>
<defs>
<clipPath id="clip0_3_3733">
<rect width="16" height="16" fill="white"/>
</clipPath>
</defs>
</svg>

<svg xmlns="http://www.w3.org/2000/svg" viewBox="0 0 16 16" class="sageicon"><path fill-rule="evenodd" d="M4.667 0A.667.667 0 0 0 4 .667v4c0 .368.298.666.667.666h2a.667.667 0 0 0 .666-.666.666.666 0 1 1 1.334 0c0 .368.298.666.666.666h2A.667.667 0 0 0 12 4.667v-4A.667.667 0 0 0 11.333 0H4.667Zm1.447 4h-.78V1.333h5.333V4h-.78a2 2 0 0 0-3.773 0ZM.667 2c0-.368.298-.667.666-.667h1.334a.667.667 0 0 1 0 1.334H2v12h12v-12h-.667a.667.667 0 1 1 0-1.334h1.334c.368 0 .666.299.666.667v13.333a.667.667 0 0 1-.666.667H1.333a.667.667 0 0 1-.666-.667V2Zm4 5.333a.667.667 0 0 0 0 1.334h6.666a.667.667 0 0 0 0-1.334H4.667Zm0 3.334a.667.667 0 1 0 0 1.333h6.666a.667.667 0 0 0 0-1.333H4.667Z"/></svg>
